icons/evolvere-blue-folders-flat-vivid-dark-fallback/apps/64/calligrastage.svg

<svg xmlns="http://www.w3.org/2000/svg" viewBox="0 0 64 64" xmlns:xlink="http://www.w3.org/1999/xlink"><defs><path id="0" d="m16 36a1 1 0 0 1 -1 1 1 1 0 0 1 -1 -1 1 1 0 0 1 1 -1 1 1 0 0 1 1 1" color="#000" fill="#3e95df"/></defs><g color="#000"><path d="m0 2v32 28l2 2h30 30l2-2v-28-32h-32z" fill="#e67f2e"/><path d="m2 0l-2 1v1h32 32v-1l-2-1h-30z" fill="#ffb036"/></g><path d="m0 1v3l2-2" fill="#ffc873"/><path d="m64 4l-2-2 2-1z" fill="#f19533"/><path d="m60 7l-50 4h-1l-2 41 2 2h50v-2-39h3v-4z" fill-opacity=".17"/><g transform="translate(2-2)"><path d="m7 8v43h50v-43z" transform="translate(-2 3)" fill="#e5e5e5" color="#000"/><path d="m6 11h46v1h-46z" fill="#fff" fill-opacity=".561"/><path transform="translate(-2 2)" d="m7 11h50v1h-50z" fill-opacity=".093" color="#000"/><g transform="matrix(1 0 0 .53571-.5 8.821)"><g fill="none" stroke="#000" color="#000" stroke-width="1.366"><path d="m48 19v28m-35-28v28m7-28v28m7-28v28m7-28v28m7-28v28" stroke-opacity=".409"/><path transform="translate(-2 2)" d="m10 45l5-9 7 5 7-16 7 4 7 9 7-15" stroke-opacity=".564"/></g><use transform="matrix(2 0 0 3.73333 11-94.87)" xlink:href="#0"/><use transform="matrix(2 0 0 3.73333 18-109.4)" xlink:href="#0"/><use transform="matrix(2 0 0 3.73333 4-103.4)" xlink:href="#0"/><use transform="matrix(2 0 0 3.73333-3-107.4)" xlink:href="#0"/><use transform="matrix(2 0 0 3.73333-10-91.4)" xlink:href="#0"/><use transform="matrix(2 0 0 3.73333-17-96.4)" xlink:href="#0"/></g><g color="#000"><g transform="translate(39)"><path fill="#3e95df" d="m-30 37h17v3h-17z"/><path fill="#76b92b" d="m-30 41h10v3h-10z"/><path fill="#cf5326" d="m-30 45h14v3h-14z"/></g><g transform="matrix(.5 0 0 .5 25.5 20)"><path d="M51 46A12 12 0 0 1 43.10424 57.27631 12 12 0 0 1 29.807467 53.713451 12 12 0 0 1 28.607695 40L39 46" fill="#e8ac0e"/><path d="M28.607695 40A12 12 0 0 1 42.10583 34.40889L39 46" fill="#76b92b"/><path d="M42.10583 34.40889A12 12 0 0 1 51 46h-12z" fill="#cf5326"/></g></g></g><path d="m0 57l64-20v25l-2 2h-60l-2-2z" fill="#ef8930" fill-rule="evenodd"/><path fill="#66c741" color="#000" d="m4 7h56v4h-56z"/></svg>

<?xml version="1.0" encoding="UTF-8" standalone="no"?>
<!-- Created with Inkscape (http://www.inkscape.org/) -->

<svg
   xmlns:dc="http://purl.org/dc/elements/1.1/"
   xmlns:cc="http://creativecommons.org/ns#"
   xmlns:rdf="http://www.w3.org/1999/02/22-rdf-syntax-ns#"
   xmlns:svg="http://www.w3.org/2000/svg"
   xmlns="http://www.w3.org/2000/svg"
   xmlns:sodipodi="http://sodipodi.sourceforge.net/DTD/sodipodi-0.dtd"
   xmlns:inkscape="http://www.inkscape.org/namespaces/inkscape"
   width="64"
   height="64"
   id="svg13094"
   version="1.1"
   inkscape:version="0.91+devel r"
   sodipodi:docname="calligrastage.svg">
  <sodipodi:namedview
     id="base"
     pagecolor="#ffffff"
     bordercolor="#666666"
     borderopacity="1.0"
     inkscape:pageopacity="0"
     inkscape:pageshadow="2"
     inkscape:zoom="8.0000004"
     inkscape:cx="45.695172"
     inkscape:cy="35.31703"
     inkscape:document-units="px"
     inkscape:current-layer="g4027"
     showgrid="true"
     inkscape:snap-bbox="true"
     inkscape:bbox-paths="true"
     inkscape:bbox-nodes="true"
     inkscape:snap-bbox-edge-midpoints="true"
     inkscape:snap-bbox-midpoints="true"
     inkscape:object-paths="true"
     inkscape:snap-intersection-paths="true"
     inkscape:object-nodes="true"
     inkscape:snap-smooth-nodes="true"
     inkscape:snap-midpoints="true"
     inkscape:snap-object-midpoints="true"
     inkscape:snap-center="true"
     showguides="true"
     inkscape:guide-bbox="true"
     inkscape:window-width="1920"
     inkscape:window-height="1023"
     inkscape:window-x="-10"
     inkscape:window-y="35"
     inkscape:window-maximized="1"
     inkscape:snap-global="true"
     fit-margin-top="0"
     fit-margin-left="0"
     fit-margin-right="0"
     fit-margin-bottom="0"
     showborder="true"
     inkscape:showpageshadow="false"
     inkscape:snap-page="true">
    <inkscape:grid
       originy="18px"
       originx="1.6362304e-08px"
       snapvisiblegridlinesonly="true"
       enabled="true"
       visible="true"
       empspacing="5"
       id="grid3075"
       type="xygrid" />
  </sodipodi:namedview>
  <defs
     id="defs13096" />
  <metadata
     id="metadata13099">
    <rdf:RDF>
      <cc:Work
         rdf:about="">
        <dc:format>image/svg+xml</dc:format>
        <dc:type
           rdf:resource="http://purl.org/dc/dcmitype/StillImage" />
        <dc:title></dc:title>
      </cc:Work>
    </rdf:RDF>
  </metadata>
  <path
     sodipodi:nodetypes="ccccccccccc"
     id="path4095"
     d="m 0,2 0,32 0,28 2,2 30,0 30,0 2,-2 0,-28 0,-32 -32,0 z"
     style="color:#000000;fill:#e67f2e;fill-opacity:1;fill-rule:nonzero;stroke:none;stroke-width:2.28571415;marker:none;visibility:visible;display:inline;overflow:visible;enable-background:accumulate"
     inkscape:connector-curvature="0" />
  <path
     sodipodi:nodetypes="ccccccccc"
     id="path4090"
     d="M 2,0 0,1 0,2 32,2 64,2 64,1 62,0 32,0 z"
     style="color:#000000;fill:#ffb036;fill-opacity:1;fill-rule:nonzero;stroke:none;stroke-width:2.28571415;marker:none;visibility:visible;display:inline;overflow:visible;enable-background:accumulate"
     inkscape:connector-curvature="0" />
  <path
     sodipodi:nodetypes="cccc"
     inkscape:connector-curvature="0"
     id="path4298"
     d="M 0,1 0,4 2,2 Z"
     style="fill:#ffc873;fill-opacity:1;fill-rule:nonzero" />
  <path
     sodipodi:nodetypes="cccc"
     inkscape:connector-curvature="0"
     style="fill:#f19533;fill-opacity:1"
     id="path3028"
     d="M 64,4 62,2 64,1 z" />
  <g
     transform="translate(-0.62500009,0.082283)"
     inkscape:export-ydpi="90"
     inkscape:export-xdpi="90"
     inkscape:export-filename="folder.png"
     id="g3043" />
  <g
     style="fill:#ffffff"
     inkscape:label="#g3701"
     transform="matrix(1.0385892,0,0,1.0385892,1214.7222,1878.8121)"
     id="scalable" />
  <path
     sodipodi:nodetypes="ccccccccccc"
     inkscape:connector-curvature="0"
     id="path3960-6"
     d="m 60,7 -50,4 -1,0 -2,41 2,2 50,0 0,-2 0,-39 3,0 0,-4 z"
     style="fill:#000000;fill-opacity:0.17025093;fill-rule:nonzero" />
  <g
     transform="translate(2,-2)"
     id="g4027">
    <path
       style="color:#000000;fill:#e5e5e5;fill-opacity:1;fill-rule:nonzero;stroke-width:1;stroke-linecap:butt;stroke-linejoin:miter;stroke-miterlimit:4;stroke-opacity:1;stroke-dasharray:none;stroke-dashoffset:0;marker:none;visibility:visible;display:inline;overflow:visible;enable-background:accumulate"
       d="M 7,8 7,51 57,51 57,8 z"
       transform="translate(-2,3)"
       id="path3960-9"
       inkscape:connector-curvature="0"
       sodipodi:nodetypes="ccccc" />
    <path
       inkscape:connector-curvature="0"
       d="m 6,11 46,0 0,1 -46,0 z"
       id="path3878"
       style="fill:#ffffff;fill-opacity:0.56095402;fill-rule:nonzero" />
    <path
       transform="translate(-2,2)"
       style="color:#000000;fill:#000000;fill-opacity:0.09302326;fill-rule:nonzero;stroke:none;stroke-width:1;marker:none;visibility:visible;display:inline;overflow:visible;enable-background:accumulate"
       d="m 7,11 50,0 0,1 -50,0 z"
       id="rect3806" />
    <g
       id="g3869"
       transform="matrix(1,0,0,0.53571429,-0.5,8.8214286)">
      <path
         inkscape:connector-curvature="0"
         d="m 48,19 0,27.999957 M 13,19 13,47 m 7,-28 0,28 m 7,-28 0,28 m 7,-28 0,28 m 7,-28 0,28"
         style="color:#000000;fill:none;stroke:#000000;stroke-width:1.36626005;stroke-linecap:butt;stroke-linejoin:miter;stroke-miterlimit:4;stroke-opacity:0.40949821;stroke-dasharray:none;stroke-dashoffset:0;marker:none;visibility:visible;display:inline;overflow:visible;enable-background:accumulate"
         id="path3840" />
      <path
         transform="translate(-2,2)"
         inkscape:connector-curvature="0"
         id="path3855"
         d="m 10,45 5,-9 7,5 7,-16 7,4 7,9 7,-15"
         style="color:#000000;fill:none;stroke:#000000;stroke-width:1.36626005;stroke-linecap:butt;stroke-linejoin:miter;stroke-miterlimit:4;stroke-opacity:0.56362011;stroke-dasharray:none;stroke-dashoffset:0;marker:none;visibility:visible;display:inline;overflow:visible;enable-background:accumulate" />
      <path
         transform="matrix(1.9999999,0,0,3.7333321,11.000002,-94.86662)"
         d="m 16,36 a 1,1 0 0 1 -1,1 1,1 0 0 1 -1,-1 1,1 0 0 1 1,-1 1,1 0 0 1 1,1 z"
         sodipodi:ry="1"
         sodipodi:rx="1"
         sodipodi:cy="36"
         sodipodi:cx="15"
         id="path3885"
         style="color:#000000;fill:#3e95df;fill-opacity:1;stroke:none;stroke-width:1;marker:none;visibility:visible;display:inline;overflow:visible;enable-background:accumulate"
         sodipodi:type="arc" />
      <path
         transform="matrix(1.9999999,0,0,3.7333321,18.000002,-109.39996)"
         d="m 16,36 a 1,1 0 0 1 -1,1 1,1 0 0 1 -1,-1 1,1 0 0 1 1,-1 1,1 0 0 1 1,1 z"
         sodipodi:ry="1"
         sodipodi:rx="1"
         sodipodi:cy="36"
         sodipodi:cx="15"
         id="path3887"
         style="color:#000000;fill:#3e95df;fill-opacity:1;stroke:none;stroke-width:1;marker:none;visibility:visible;display:inline;overflow:visible;enable-background:accumulate"
         sodipodi:type="arc" />
      <path
         transform="matrix(1.9999999,0,0,3.7333321,4.0000015,-103.39996)"
         d="m 16,36 a 1,1 0 0 1 -1,1 1,1 0 0 1 -1,-1 1,1 0 0 1 1,-1 1,1 0 0 1 1,1 z"
         sodipodi:ry="1"
         sodipodi:rx="1"
         sodipodi:cy="36"
         sodipodi:cx="15"
         id="path3889"
         style="color:#000000;fill:#3e95df;fill-opacity:1;stroke:none;stroke-width:1;marker:none;visibility:visible;display:inline;overflow:visible;enable-background:accumulate"
         sodipodi:type="arc" />
      <path
         transform="matrix(1.9999999,0,0,3.7333321,-2.9999985,-107.39996)"
         d="m 16,36 a 1,1 0 0 1 -1,1 1,1 0 0 1 -1,-1 1,1 0 0 1 1,-1 1,1 0 0 1 1,1 z"
         sodipodi:ry="1"
         sodipodi:rx="1"
         sodipodi:cy="36"
         sodipodi:cx="15"
         id="path3891"
         style="color:#000000;fill:#3e95df;fill-opacity:1;stroke:none;stroke-width:1;marker:none;visibility:visible;display:inline;overflow:visible;enable-background:accumulate"
         sodipodi:type="arc" />
      <path
         transform="matrix(1.9999999,0,0,3.7333321,-9.9999985,-91.399956)"
         d="m 16,36 a 1,1 0 0 1 -1,1 1,1 0 0 1 -1,-1 1,1 0 0 1 1,-1 1,1 0 0 1 1,1 z"
         sodipodi:ry="1"
         sodipodi:rx="1"
         sodipodi:cy="36"
         sodipodi:cx="15"
         id="path3893"
         style="color:#000000;fill:#3e95df;fill-opacity:1;stroke:none;stroke-width:1;marker:none;visibility:visible;display:inline;overflow:visible;enable-background:accumulate"
         sodipodi:type="arc" />
      <path
         sodipodi:type="arc"
         style="color:#000000;fill:#3e95df;fill-opacity:1;stroke:none;stroke-width:1;marker:none;visibility:visible;display:inline;overflow:visible;enable-background:accumulate"
         id="path3867"
         sodipodi:cx="15"
         sodipodi:cy="36"
         sodipodi:rx="1"
         sodipodi:ry="1"
         d="m 16,36 a 1,1 0 0 1 -1,1 1,1 0 0 1 -1,-1 1,1 0 0 1 1,-1 1,1 0 0 1 1,1 z"
         transform="matrix(1.9999999,0,0,3.7333321,-16.999998,-96.399957)" />
    </g>
    <g
       id="g3037"
       transform="matrix(-1,0,0,1,39,0)">
      <rect
         transform="scale(-1,1)"
         style="color:#000000;fill:#3e95df;fill-opacity:1;fill-rule:nonzero;stroke:none;stroke-width:1;marker:none;visibility:visible;display:inline;overflow:visible;enable-background:accumulate"
         id="rect3881"
         width="17"
         height="3"
         x="-30"
         y="37" />
      <rect
         transform="scale(-1,1)"
         style="color:#000000;fill:#76b92b;fill-opacity:1;fill-rule:nonzero;stroke:none;stroke-width:1;marker:none;visibility:visible;display:inline;overflow:visible;enable-background:accumulate"
         id="rect3883"
         width="10"
         height="3"
         x="-30"
         y="41" />
      <rect
         transform="scale(-1,1)"
         y="45"
         x="-30"
         height="3"
         width="14"
         id="rect3879"
         style="color:#000000;fill:#cf5326;fill-opacity:1;fill-rule:nonzero;stroke:none;stroke-width:1;marker:none;visibility:visible;display:inline;overflow:visible;enable-background:accumulate" />
    </g>
    <g
       id="g3906"
       transform="matrix(1,0,0,0.53571429,-0.49999998,8.8214289)">
      <path
         sodipodi:type="arc"
         style="color:#000000;fill:#e8ac0e;fill-opacity:1;fill-rule:nonzero;stroke:none;stroke-width:2.28571415;marker:none;visibility:visible;display:inline;overflow:visible;enable-background:accumulate"
         id="path4044"
         sodipodi:cx="39"
         sodipodi:cy="46"
         sodipodi:rx="12"
         sodipodi:ry="12"
         d="M 51,46 A 12,12 0 0 1 43.104242,57.276311 12,12 0 0 1 29.807467,53.713451 12,12 0 0 1 28.607695,40 L 39,46 Z"
         transform="matrix(0.5,0,0,0.93333335,26,20.866666)"
         sodipodi:start="0"
         sodipodi:end="3.6651914" />
      <path
         sodipodi:type="arc"
         style="color:#000000;fill:#76b92b;fill-opacity:1;fill-rule:nonzero;stroke:none;stroke-width:2.28571415;marker:none;visibility:visible;display:inline;overflow:visible;enable-background:accumulate"
         id="path4046"
         sodipodi:cx="39"
         sodipodi:cy="46"
         sodipodi:rx="12"
         sodipodi:ry="12"
         d="M 28.607695,40 A 12,12 0 0 1 42.105829,34.40889 L 39,46 Z"
         transform="matrix(0.5,0,0,0.93333335,26,20.866666)"
         sodipodi:start="3.6651914"
         sodipodi:end="4.9741884" />
      <path
         sodipodi:end="6.2831853"
         sodipodi:start="4.9741884"
         transform="matrix(0.5,0,0,0.93333335,26,20.866666)"
         d="M 42.105829,34.40889 A 12,12 0 0 1 51,46 l -12,0 z"
         sodipodi:ry="12"
         sodipodi:rx="12"
         sodipodi:cy="46"
         sodipodi:cx="39"
         id="path4042"
         style="color:#000000;fill:#cf5326;fill-opacity:1;fill-rule:nonzero;stroke:none;stroke-width:2.28571415;marker:none;visibility:visible;display:inline;overflow:visible;enable-background:accumulate"
         sodipodi:type="arc" />
    </g>
  </g>
  <path
     sodipodi:nodetypes="ccccccc"
     inkscape:connector-curvature="0"
     id="path4035"
     d="M 1.6362304e-8,57 64,37 64,62 62,64 2,64 1.6362304e-8,62 z"
     style="fill:#ef8930;fill-opacity:1;fill-rule:evenodd;stroke:none" />
  <rect
     style="color:#000000;fill:#66c741;fill-opacity:1;fill-rule:nonzero;stroke:none;stroke-width:1;marker:none;visibility:visible;display:inline;overflow:visible;enable-background:accumulate"
     id="rect3024"
     width="56"
     height="4"
     x="4"
     y="7" />
</svg>
